X:95
T:Lady Montgomery’s Reel. RHu.095
S:R.Hughes MS,1823,Whitchurch,Shrops.
R:Reel
A:Whitchurch, Shropshire
C:by 12th Earl of Eglintoun (Col. Hugh Montgomerie)
Z:Neil Brookes 2006
M:4/4
L:1/8
Q:1/2=100
K:D
d2dA FGAF|d2dA Bcdf|d2dA FGAF|Eeed cdef::!
d2fd adfd|d2fd cdef|d2fd adfd|gfed cee2|!
d2fd adfd|d2fd cdee|afge fdec|dBAG FA d2|]

